X:1
T:Længsel til Landet
T:Længsel til Landet
T:Reissiger
C:Reissiger
%%score [ 1 2 3 4 ]
L:1/8
Q:1/4=62
M:2/4
K:E
V:1 treble-8 nm="T1"
V:2 treble-8 nm="T2"
V:3 bass nm="B1"
V:4 bass nm="B2"
V:1
"^Andantino con espress."!mf! B | e3/2 G/ A B | c2 c d |!<(! e3/2 e/ e!<)! f |!>(! g3!>)! g | %5
w: Det|lys- ned bort i|Sko- ven, da|i- le- de jeg|frem, snart|
 g2!<(! d e!<)! | f3/2 e/ d c |!>(! ^B2!>)! d2- | d2 z d | e3/2 G/ A B | c3 d | %11
w: stod jeg, hvor|Bak- ke- stu- pet|skraa- ned.|_ Jeg|saa den vil- de|Bygd, jeg|
!<(! e3/2 e/ e!<)! f |!>(! g3!>)! f | e2!<(! e d!<)! | g3/2 f/!>(! e c!>)! | ^A4 | B z z c | %17
w: saa mit kjæ- re|Hjem, jeg|saa, hvor de|fjer- ne Aa- ser|blaa-|ned, jeg|
!<(! d2!<)! f e | d3/2 d/!>(! g c!>)! | (c3 d) | B2 z!mf! B | f3/2 e/ d c | !>!c2 B B | %23
w: saa. hvor de|fjer- ne Aa- ser|blaa- *|ned. Jeg|saa de bre- de|Fjor- de, der|
!<(! ^A B!<)!!>(! e3/2 c/!>)! | B2 z B | f!<(! (^e/f/) a!<)! g | g2!>(! f e!>)! | %27
w: skar sig ind i|Bugt, og|El- ven _ saa jeg|blin- ke og|
!<(! d2!<)!"^rit." e g | !fermata!f2!p!"^a tempo" g2 | e3/2 e/ e!<(! d | (c!<)!a) f e | %31
w: krum- me sig|smukt. Jeg|læng- tes til de|sol- * ly- se|
!>(! d4!>)! | e2!f! e2 | e3/2 e/ d c | (Bg) d e |!>(! f4!>)! | e2 z |] %37
w: Slet-|ter, jeg|læng- tes til de|sol- * ly- se|Slet-|ter.|
V:2
!mf! B | G3/2 E/ F G | A2 A ^B |!<(! c3/2 c/ c!<)! d |!>(! e3!>)! e | d2!<(! ^B c!<)! | %6
w: Det|lys- ned bort i|Sko- ven, da|i- le- de jeg|frem, snart|stod jeg, hvor|
 c3/2 c/ c c |!>(! ^B2!>)! B2- | B2 z =B | B3/2 E/ F G | A3 ^B |!<(! c3/2 c/ c!<)! d | %12
w: Bak- ke- stu- pet|skraa- ned.|_ Jeg|saa den vil- de|Bygd, jeg|saa mit kjæ- re|
!>(! d3!>)! d | c2!<(! c B!<)! | B3/2 ^B/!>(! c G!>)! | (EG FE) | D z z B |!<(! B2!<)! c B | %18
w: Hjem, jeg|saa, hvor de|fjer- ne Aa- ser|blaa- * * *|ned, jeg|saa. hvor de|
 B3/2 B/!>(! B B!>)! | ^A4 | B2 z!mf! B | A3/2 A/ A A | !>!A2 A F |!<(! ^^F G!<)!!>(! c3/2 A/!>)! | %24
w: fjer- ne Aa- ser|blaa-|ned. Jeg|saa de bre- de|Fjor- de, der|skar sig ind i|
 G2 z B | d!<(! (^^c/d/) f!<)! e | c2!>(! c c!>)! |!<(! B2!<)! B e | !fermata!d2!p! d2 | %29
w: Bugt, og|El- ven _ saa jeg|blin- ke og|krum- me sig|smukt. Jeg|
 c3/2 c/ ^B!<(! B | c2!<)! c c |!>(! (Bc BA)!>)! | G2!f! =d2 | c3/2 c/ B A | (GB) A G | %35
w: læng- tes til de|sol- ly- se|Slet- * * *|ter, jeg|læng- tes til de|sol- * ly- se|
!>(! (c2 BA)!>)! | G2 z |] %37
w: Slet- * *|ter.|
V:3
!mf! B, | B,3/2 E,/ E, E, | E,2 E, G, |!<(! G,3/2 G,/ G,!<)! B, |!>(! B,3!>)! B, | %5
w: Det|lys- ned bort i|Sko- ven, da|i- le- de jeg|frem, snart|
 B,2!<(! G, G,!<)! | F,3/2 F,/ F, ^^F, |!>(! G,2!>)! G,2- | G,2 z A, | G,3/2 E,/ E, E, | E,3 G, | %11
w: stod jeg, hvor|Bak- ke- stu- pet|skraa- ned.|_ Jeg|saa den vil- de|Bygd, jeg|
!<(! G,3/2 G,/ G,!<)! C |!>(! ^B,3!>)! G, | (G,=G,)!<(! F, F,!<)! | G,3/2 G,/!>(! G, E,!>)! | %15
w: saa mit kjæ- re|Hjem, jeg|saa, _ hvor de|fjer- ne Aa- ser|
 (C,E, D,C,) | B,,!<(! D, E,!<)! ^E, | F,B, ^A, G, | F,3/2 F,/!>(! ^E, E,!>)! | (F,2 =E,2) | %20
w: blaa- * * *|ned, jeg saa, hvor|fjer- * ne, hvor|fjer- ne Aa- ser|blaa- *|
 D,2 z!mf! D, | D,3/2 E,/ F, E, | !>!D,2 D, D, |!<(! E, E,!<)!!>(! E,3/2 E,/!>)! | E,2 z G, | %25
w: ned. Jeg|saa de bre- de|Fjor- de, der|skar sig ind i|Bugt, og|
 A,!<(! (G,/A,/) B,!<)! B, | A,2!>(! A, =G,!>)! |!<(! (F,>A,)!<)! ^G, B, | !fermata!B,2!p! G,2 | %29
w: El- ven _ saa jeg|blin- ke og|krum- * me sig|smukt. Jeg|
 G,3/2 G,/ F,!<(! F, | (E,!<)!F,) F, F, |!>(! (F,A, G,F,)!>)! | E,2!f! G,2 | A,3/2 E,/ E, E, | %34
w: læng- tes til de|sol- * ly- se|Slet- * * *|ter, jeg|læng- tes til de|
 E,2 F, E, |!>(! (E,2 D,B,)!>)! | B,2 z |] %37
w: sol- ly- se|Slet- * *|ter.|
V:4
!mf! B, | E,3/2 E,/ E, E, | A,,2 A,, G,, |!<(! C,3/2 C,/ C,!<)! B,, |!>(! E,3!>)! E, | %5
w: Det|lys- ned bort i|Sko- ven, da|i- le- de jeg|frem, snart|
 G,2!<(! G, C,!<)! | A,,3/2 A,,/ A,, A,, |!>(! G,,2!>)! G,2- | G,2 z F, | E,3/2 D,/ C, B,, | %10
w: stod jeg, hvor|Bak- ke- stu- pet|skraa- ned.|_ Jeg|saa den vil- de|
 A,,3 G,, |!<(! C,3/2 C,/ C,!<)! A,, |!>(! G,,3!>)! ^B,, | C,=B,,!<(! ^A,, B,,!<)! | %14
w: Bygd, jeg|saa mit kjæ- re|Hjem, jeg|saa, _ hvor de|
 E,3/2 D,/!>(! C, E,,!>)! | F,,4 | G,, z z G,, |!<(! F,,2!<)! F,, F,, | F,, D,!>(! C, C,!>)! | %19
w: fjer- ne Aa- ser|blaa-|ned, jeg|saa. hvor de|fjer- ne Aa- ser|
 F,,4 | B,,2 z!mf! B,, | B,,3/2 B,,/ B,, B,, | !>!B,,2 B,, B,, |!<(! E, E,!<)!!>(! A,,3/2 C,/!>)! | %24
w: blaa-|ned. Jeg|saa de bre- de|Fjor- de, der|skar sig ind i|
 E,2 z E, | B,,!<(! B,, D,!<)! E, | A,,2!>(! A,, ^A,,!>)! |!<(! B,,2!<)! B,, B,, | %28
w: Bugt, og|El- ven saa jeg|blin- ke og|krum- me sig|
 !fermata!B,,2!p! ^B,,2 | C,3/2 C,/ G,,!<(! G,, | (A,,!<)!F,,) A,, ^A,, |!>(! (B,,3 ^B,,)!>)! | %32
w: smukt. Jeg|læng- tes til de|sol- * ly- se|Slet- *|
 C,2!f! B,,2 | A,,3/2 A,,/ A,, C, | (E,B,,) ^B,, C, |!>(! (A,,2 B,,2)!>)! | E,2 z |] %37
w: ter, jeg|læng- tes til de|sol- * ly- se|Slet- *|ter.|

